svg/malaria_negative_microscope_negative.svg

<svg width="48" height="48" viewBox="0 0 48 48" fill="none" xmlns="http://www.w3.org/2000/svg">
<path fill-rule="evenodd" clip-rule="evenodd" d="M22.6886 4.04688C22.6223 4.05174 22.556 4.05694 22.4896 4.06248C22.5566 4.05748 22.6226 4.05117 22.6886 4.04688ZM20.6447 4.28517C20.6127 4.29093 20.5807 4.29676 20.5487 4.30267C20.5807 4.29717 20.6127 4.29057 20.6447 4.28517ZM23.9996 4.51757C13.2398 4.51757 4.51787 13.2399 4.51787 23.9993C4.51747 34.7592 13.2398 43.4811 23.9996 43.4811C34.7595 43.4811 43.4814 34.7592 43.4814 23.9993C43.4814 13.2395 34.7595 4.51757 23.9996 4.51757ZM19.1517 4.61517C18.9112 4.67259 18.6719 4.73447 18.4337 4.80077C18.6707 4.73217 18.9117 4.67517 19.1517 4.61517ZM17.2167 5.20506C16.9946 5.2819 16.7739 5.36264 16.5547 5.44726C16.7717 5.35986 16.9957 5.28486 17.2167 5.20506ZM15.4057 5.96084C15.1852 6.06233 14.9665 6.1678 14.7497 6.27725C14.9647 6.16495 15.1867 6.06555 15.4057 5.96084ZM13.7188 6.86904C13.4846 7.00433 13.2532 7.14436 13.0248 7.28903C13.2508 7.14064 13.4868 7.00844 13.7188 6.86904ZM35.2555 7.47063C35.4005 7.56933 35.5335 7.68273 35.6755 7.78513C35.5369 7.67846 35.3969 7.57362 35.2555 7.47063ZM12.0718 7.97453C11.8625 8.12416 11.6561 8.27782 11.4528 8.43542C11.6528 8.27402 11.8658 8.12832 12.0718 7.97453ZM36.8115 8.64832C36.9995 8.80512 37.1735 8.9771 37.3545 9.1405C37.1765 8.97313 36.9955 8.80905 36.8115 8.64832ZM29.2966 8.87881C31.2585 8.79232 33.7315 11.3249 35.1515 14.8768C36.7625 18.9068 36.4625 22.8157 34.4795 23.6067C32.4985 24.4027 29.5846 21.7788 27.9726 17.7478C26.3616 13.7179 26.6616 9.8093 28.6446 9.01751C28.8486 8.93541 29.0666 8.88901 29.2966 8.87881ZM10.5448 9.23231C10.3513 9.40182 10.1612 9.57505 9.97439 9.75189C10.1578 9.5714 10.3548 9.40561 10.5448 9.23231ZM19.0227 9.62101C19.6497 9.59231 20.1827 9.7418 20.5897 10.0609C22.2716 11.3749 21.4677 15.2118 18.7947 18.6308C16.1207 22.0487 12.5908 23.7537 10.9098 22.4387C9.228 21.1248 10.0318 17.2878 12.7048 13.8689C14.6497 11.3809 17.1387 9.7081 19.0227 9.62101ZM38.2474 9.97449C38.4274 10.1579 38.5934 10.3549 38.7674 10.5449C38.5978 10.3514 38.4244 10.1613 38.2474 9.97449ZM9.14081 10.6449C8.97344 10.8229 8.80934 11.0039 8.64861 11.1879C8.80541 10.9999 8.97741 10.8259 9.14081 10.6449ZM39.5634 11.4529C39.7254 11.6529 39.8714 11.8659 40.0244 12.0719C39.8748 11.8626 39.7211 11.6562 39.5634 11.4529ZM7.78483 12.3239C7.67816 12.4625 7.57332 12.6025 7.47033 12.7439C7.56903 12.5989 7.68243 12.4659 7.78483 12.3239ZM40.7104 13.0249C40.8584 13.2509 40.9904 13.4869 41.1304 13.7189C40.9951 13.4847 40.8551 13.2533 40.7104 13.0249ZM41.7224 14.7498C41.8344 14.9648 41.9334 15.1868 42.0384 15.4058C41.9371 15.1853 41.8317 14.9666 41.7224 14.7498ZM42.5524 16.5548C42.6394 16.7718 42.7144 16.9958 42.7944 17.2168C42.7176 16.9947 42.6369 16.774 42.5524 16.5548ZM43.1984 18.4338C43.2674 18.6708 43.3244 18.9118 43.3844 19.1518C43.3268 18.9113 43.2648 18.672 43.1984 18.4338ZM43.6964 20.5488L43.7144 20.6448C43.7085 20.6128 43.7025 20.5808 43.6964 20.5488ZM43.9374 22.4897C43.9414 22.5567 43.9484 22.6227 43.9524 22.6887C43.9477 22.6224 43.9427 22.5561 43.9374 22.4897ZM25.8906 25.1557C27.7106 25.1747 30.0855 26.1817 32.1925 27.8297C35.6115 30.5036 37.3165 34.0336 36.0015 35.7146C34.6875 37.3966 30.8505 36.5926 27.4316 33.9196C24.0126 31.2456 22.3076 27.7157 23.6226 26.0347C24.0786 25.4507 24.8656 25.1457 25.8906 25.1557ZM4.04688 25.3107C4.05174 25.3771 4.05694 25.4434 4.06248 25.5097C4.05748 25.4427 4.05117 25.3767 4.04688 25.3107ZM14.2967 25.8787C16.2587 25.7917 18.7317 28.3247 20.1517 31.8766C21.7627 35.9066 21.4627 39.8155 19.4797 40.6065C17.4987 41.4025 14.5847 38.7785 12.9728 34.7476C11.3618 30.7176 11.6618 26.8087 13.6448 26.0177C13.8488 25.9347 14.0667 25.8887 14.2967 25.8787ZM4.28487 27.3547C4.29063 27.3867 4.29646 27.4187 4.30237 27.4507C4.29687 27.4187 4.29027 27.3867 4.28487 27.3547ZM4.61487 28.8477C4.67229 29.0881 4.73417 29.3275 4.80047 29.5657C4.73187 29.3287 4.67487 29.0877 4.61487 28.8477ZM5.20476 30.7826C5.2816 31.0047 5.36234 31.2254 5.44696 31.4446C5.35956 31.2276 5.28456 31.0036 5.20476 30.7826ZM5.96055 32.5936C6.06203 32.8142 6.16751 33.0329 6.27695 33.2496C6.16465 33.0346 6.06525 32.8126 5.96055 32.5936ZM6.86874 34.2806C7.00403 34.5147 7.14406 34.7461 7.28873 34.9746C7.14034 34.7486 7.00814 34.5126 6.86874 34.2806ZM40.5283 35.2556C40.4303 35.4006 40.3163 35.5336 40.2143 35.6756C40.3208 35.537 40.4255 35.3969 40.5283 35.2556ZM7.97473 35.9276C8.12436 36.1369 8.27802 36.3432 8.43562 36.5466C8.27422 36.3466 8.12852 36.1336 7.97473 35.9276ZM39.3513 36.8116C39.1943 36.9996 39.0223 37.1736 38.8583 37.3546C39.026 37.1766 39.1903 36.9956 39.3513 36.8116ZM9.23171 37.4546C9.40123 37.6479 9.57446 37.8379 9.7513 38.0246C9.57081 37.8416 9.40501 37.6446 9.23171 37.4546ZM38.0243 38.2476C37.8413 38.4275 37.6444 38.5935 37.4544 38.7675C37.6477 38.5979 37.8377 38.4245 38.0243 38.2476ZM10.6447 38.8585C10.8227 39.0262 11.0037 39.1905 11.1877 39.3515C10.9997 39.1945 10.8257 39.0225 10.6447 38.8585ZM36.5464 39.5635C36.3464 39.7255 36.1334 39.8715 35.9274 40.0245C36.1367 39.8749 36.343 39.7212 36.5464 39.5635ZM12.3237 40.2145C12.4623 40.321 12.6023 40.4257 12.7437 40.5285C12.5987 40.4305 12.4657 40.3165 12.3237 40.2145ZM34.9744 40.7105C34.7484 40.8585 34.5124 40.9905 34.2804 41.1305C34.5145 40.9952 34.7459 40.8552 34.9744 40.7105ZM33.2494 41.7225C33.0344 41.8345 32.8124 41.9335 32.5934 42.0385C32.814 41.9372 33.0327 41.8318 33.2494 41.7225ZM31.4444 42.5525C31.2274 42.6395 31.0034 42.7145 30.7824 42.7945C31.0045 42.7177 31.2252 42.637 31.4444 42.5525ZM29.5655 43.1985C29.3285 43.2675 29.0875 43.3245 28.8475 43.3845C29.0879 43.3269 29.3273 43.2649 29.5655 43.1985ZM27.4505 43.6965L27.3545 43.7145C27.3865 43.7086 27.4185 43.7026 27.4505 43.6965ZM25.5095 43.9375C25.4425 43.9415 25.3765 43.9485 25.3105 43.9525C25.3769 43.9478 25.4432 43.9428 25.5095 43.9375Z" fill="#333333"/>
</svg>

<?xml version="1.0" encoding="UTF-8" standalone="no"?>
<!-- Created with Inkscape (http://www.inkscape.org/) -->
<svg id="svg8" xmlns:rdf="http://www.w3.org/1999/02/22-rdf-syntax-ns#" xmlns="http://www.w3.org/2000/svg" xmlns:osb="http://www.openswatchbook.org/uri/2009/osb" height="48" width="48" version="1.1" xmlns:cc="http://creativecommons.org/ns#" viewBox="0 0 12.7 12.7" xmlns:dc="http://purl.org/dc/elements/1.1/">
 <title id="title4753">UIO-icon</title>
 <metadata id="metadata5">
  <rdf:RDF>
   <cc:Work rdf:about="">
    <dc:format>image/svg+xml</dc:format>
    <dc:type rdf:resource="http://purl.org/dc/dcmitype/StillImage"/>
    <dc:title>UIO-icon</dc:title>
    <dc:creator>
     <cc:Agent>
      <dc:title>Joaquín Urbano</dc:title>
     </cc:Agent>
    </dc:creator>
    <dc:rights>
     <cc:Agent>
      <dc:title>GPL</dc:title>
     </cc:Agent>
    </dc:rights>
   </cc:Work>
  </rdf:RDF>
 </metadata>
 <g id="layer1" fill="#333" transform="translate(0,-284.3)">
  <path id="path1088" d="m22.689 4.0469a20 20 0 0 0 -0.199 0.0156c0.067-0.005 0.133-0.0113 0.199-0.0156zm-2.044 0.2383a20 20 0 0 0 -0.096 0.0175c0.032-0.0055 0.064-0.0121 0.096-0.0175zm3.355 0.2324c-10.76 0-19.482 8.7224-19.482 19.482-0.0004 10.76 8.722 19.482 19.482 19.482s19.482-8.722 19.482-19.482-8.722-19.482-19.482-19.482zm-4.848 0.0976a20 20 0 0 0 -0.718 0.1856c0.237-0.0686 0.478-0.1256 0.718-0.1856zm-1.935 0.5899a20 20 0 0 0 -0.662 0.2422c0.217-0.0874 0.441-0.1624 0.662-0.2422zm-1.811 0.7558a20 20 0 0 0 -0.656 0.3164c0.215-0.1123 0.437-0.2117 0.656-0.3164zm-1.687 0.9082a20 20 0 0 0 -0.694 0.42c0.226-0.1484 0.462-0.2806 0.694-0.42zm21.537 0.6016c0.145 0.0987 0.278 0.2121 0.42 0.3145a20 20 0 0 0 -0.42 -0.3145zm-23.184 0.5039a20 20 0 0 0 -0.619 0.4609c0.2-0.1614 0.413-0.3071 0.619-0.4609zm24.74 0.6738c0.188 0.1568 0.362 0.3288 0.543 0.4922a20 20 0 0 0 -0.543 -0.4922zm-7.515 0.2305c1.962-0.0865 4.435 2.4461 5.855 5.9981 1.611 4.03 1.311 7.939-0.672 8.73-1.981 0.796-4.895-1.828-6.507-5.859-1.611-4.03-1.311-7.9386 0.672-8.7304 0.204-0.0821 0.422-0.1285 0.652-0.1387zm-18.752 0.3535a20 20 0 0 0 -0.5704 0.5196c0.1834-0.1805 0.3804-0.3463 0.5704-0.5196zm8.478 0.3887c0.627-0.0287 1.16 0.1208 1.567 0.4399 1.682 1.314 0.878 5.151-1.795 8.57-2.674 3.418-6.204 5.123-7.885 3.808-1.6818-1.314-0.878-5.151 1.795-8.57 1.945-2.488 4.434-4.1608 6.318-4.2479zm19.225 0.3535c0.18 0.1834 0.346 0.3804 0.52 0.5704a20 20 0 0 0 -0.52 -0.5704zm-29.107 0.6704a20 20 0 0 0 -0.4922 0.543c0.1568-0.188 0.3288-0.362 0.4922-0.543zm30.423 0.808c0.162 0.2 0.308 0.413 0.461 0.619a20 20 0 0 0 -0.461 -0.619zm-31.779 0.871a20 20 0 0 0 -0.3145 0.42c0.0987-0.145 0.2121-0.278 0.3145-0.42zm32.926 0.701c0.148 0.226 0.28 0.462 0.42 0.694a20 20 0 0 0 -0.42 -0.694zm1.012 1.725c0.112 0.215 0.211 0.437 0.316 0.656a20 20 0 0 0 -0.316 -0.656zm0.83 1.805c0.087 0.217 0.162 0.441 0.242 0.662a20 20 0 0 0 -0.242 -0.662zm0.646 1.879c0.069 0.237 0.126 0.478 0.186 0.718a20 20 0 0 0 -0.186 -0.718zm0.498 2.115l0.018 0.096a20 20 0 0 0 -0.018 -0.096zm0.241 1.941c0.004 0.067 0.011 0.133 0.015 0.199a20 20 0 0 0 -0.015 -0.199zm-18.047 2.666c1.82 0.019 4.195 1.026 6.302 2.674 3.419 2.674 5.124 6.204 3.809 7.885-1.314 1.682-5.151 0.878-8.57-1.795-3.419-2.674-5.124-6.204-3.809-7.885 0.456-0.584 1.243-0.889 2.268-0.879zm-21.844 0.155a20 20 0 0 0 0.0156 0.199c-0.005-0.067-0.0113-0.133-0.0156-0.199zm10.25 0.568c1.962-0.087 4.435 2.446 5.855 5.998 1.611 4.03 1.311 7.939-0.672 8.73-1.981 0.796-4.895-1.828-6.507-5.859-1.611-4.03-1.311-7.939 0.672-8.73 0.204-0.083 0.422-0.129 0.652-0.139zm-10.012 1.476a20 20 0 0 0 0.0175 0.096c-0.0055-0.032-0.0121-0.064-0.0175-0.096zm0.33 1.493a20 20 0 0 0 0.1856 0.718c-0.0686-0.237-0.1256-0.478-0.1856-0.718zm0.5899 1.935a20 20 0 0 0 0.2422 0.662c-0.0874-0.217-0.1624-0.441-0.2422-0.662zm0.7558 1.811a20 20 0 0 0 0.3164 0.656c-0.1123-0.215-0.2117-0.437-0.3164-0.656zm0.9082 1.687a20 20 0 0 0 0.42 0.694c-0.1484-0.226-0.2806-0.462-0.42-0.694zm33.66 0.975c-0.098 0.145-0.212 0.278-0.314 0.42a20 20 0 0 0 0.314 -0.42zm-32.554 0.672a20 20 0 0 0 0.4609 0.619c-0.1614-0.2-0.3071-0.413-0.4609-0.619zm31.377 0.884c-0.157 0.188-0.329 0.362-0.493 0.543a20 20 0 0 0 0.493 -0.543zm-30.12 0.643a20 20 0 0 0 0.5196 0.57c-0.1805-0.183-0.3463-0.38-0.5196-0.57zm28.793 0.793c-0.183 0.18-0.38 0.346-0.57 0.52a20 20 0 0 0 0.57 -0.52zm-27.38 0.611a20 20 0 0 0 0.543 0.493c-0.188-0.157-0.362-0.329-0.543-0.493zm25.902 0.705c-0.2 0.162-0.413 0.308-0.619 0.461a20 20 0 0 0 0.619 -0.461zm-24.223 0.651a20 20 0 0 0 0.42 0.314c-0.145-0.098-0.278-0.212-0.42-0.314zm22.651 0.496c-0.226 0.148-0.462 0.28-0.694 0.42a20 20 0 0 0 0.694 -0.42zm-1.725 1.012c-0.215 0.112-0.437 0.211-0.656 0.316a20 20 0 0 0 0.656 -0.316zm-1.805 0.83c-0.217 0.087-0.441 0.162-0.662 0.242a20 20 0 0 0 0.662 -0.242zm-1.879 0.646c-0.237 0.069-0.478 0.126-0.718 0.186a20 20 0 0 0 0.718 -0.186zm-2.115 0.498l-0.096 0.018a20 20 0 0 0 0.096 -0.018zm-1.941 0.241c-0.067 0.004-0.133 0.011-0.199 0.015a20 20 0 0 0 0.199 -0.015z" fill-rule="evenodd" transform="matrix(.26458 0 0 .26458 0 284.3)"/>
 </g>
</svg>
